X:1
T:Title
%%score { 1 | 2 }
L:1/8
M:3/4
K:Eb
V:1 treble nm="Grand Piano"
V:2 bass 
V:1
 z2 z2[Q:1/4=100] B>c | B2 G2 e>c | B2 G2 [GB]>[Ac] | [GB]2 G2 E>[EG] | [DF]4 [DB]>[Dc] | %5
 B2 G2 e>c | B2 G2 E>[G,_DG] | [A,CF]2 [CA]2 [B,DG]>[A,DF] | [G,E]4 [DF]>[EG] | %9
 [FA]2 [FA]2 [EG]>[FA] | [GB]2 [GB]2 [GB]>[_Gc] | d2 B2 c>=A | [DB]4 [DB]>[Dc] | B2 G2 e>c | %14
 B2 G2 [Ec]>[Ec] | [EB]2 [EG]2 [DG]>[DF] |[M:2/4] E4 |[M:1/4] E>G |[M:3/4] c2 B2 [Ge]>[Af] | %19
 [Ge]2 [Ac]2 [GB]>[Ac] | [GB]2 G2 E>[EG] | [DF]4 [DB]>[Dc] | B2 G2 e>c | B2 G2 [Ec]>[Ec] | %24
 [EB]2 [EG]2 [DG]>[DF] |[M:2/4] E4 |] %26
V:2
 z2 z2 [E,G,E]>[E,A,E] | [E,G,E]2 [E,B,E]2 [E,CE]>[E,A,E] | [E,G,E]2 [E,B,E]2 [E,E]>[E,E] | %3
 [E,E]2 [E,B,E]2 [C,=A,]>[C,A,] | [B,,B,]4 [B,,A,]>[B,,A,] | [E,G,E]2 [E,B,E]2 [E,CE]>[E,A,E] | %6
 [E,G,E]2 [E,B,E]2 [C,C]>B,, | A,,2 A,,2 B,,>B,, | E,4 [B,,B,]>[B,,B,] | %9
 [B,,B,]2 [B,,B,]2 [E,B,]>[E,B,] | [E,B,]2 [E,E]2 [E,B,]>[E,B,] | [F,B,F]2 [F,DF]2 [F,EF]>[F,CE] | %12
 [B,,B,]4 [B,,A,]>[B,,A,] | [E,G,E]2 [E,B,E]2 [E,CE]>[E,A,E] | [E,G,E]2 [E,B,E]2 [A,,A,]>[A,,A,] | %15
 [B,,G,]2 [B,,B,]2 [B,,B,]>[B,,A,] |[M:2/4] [E,G,]4 |[M:1/4] E,>G, |[M:3/4] C2 B,2 [E,B,]>[E,B,] | %19
 [E,E]2 [E,E]2 [E,E]>[E,E] | [E,E]2 [E,B,E]2 [C,=A,]>[C,A,] | [B,,B,]4 [B,,A,]>[B,,A,] | %22
 [E,G,E]2 [E,B,E]2 [E,CE]>[E,A,E] | [E,G,E]2 [E,B,E]2 [A,,A,]>[A,,A,] | %24
 [B,,G,]2 [B,,B,]2 [B,,B,]>[B,,A,] |[M:2/4] [E,G,]4 |] %26

